usr/share/icons/biglinux-icons-material/scalable/apps/eclipse-cdt.svg

<svg width="24" height="24" viewBox="0 0 24 24" fill="none" xmlns="http://www.w3.org/2000/svg">
<path fill-rule="evenodd" clip-rule="evenodd" d="M9.59604 1.11359C9.71588 1.11486 9.83043 1.0996 9.93969 1.06779C11.3755 0.973736 12.8111 0.977551 14.2467 1.07924C15.5484 1.18066 16.8085 1.46308 18.0269 1.9265C20.0525 2.76044 21.4386 4.2069 22.185 6.26586C22.6119 7.50549 22.8639 8.78021 22.9411 10.09C23.0478 11.7347 23.0096 13.3758 22.8265 15.0133C22.6895 16.1642 22.3917 17.271 21.933 18.3336C21.0824 20.1761 19.704 21.447 17.7978 22.1463C16.2531 22.6682 14.6647 22.943 13.0325 22.9706C11.1966 23.0661 9.37913 22.9287 7.57997 22.5585C4.26839 21.8208 2.22559 19.8018 1.45158 16.5017C1.12311 15.0161 0.974199 13.5124 1.00483 11.9906C0.968176 10.3724 1.14 8.77709 1.52031 7.20471C2.33171 4.11908 4.2905 2.20701 7.39669 1.46852C8.12049 1.29157 8.8536 1.17326 9.59604 1.11359Z" fill="url(#paint0_radial_4_664)"/>
<path fill-rule="evenodd" clip-rule="evenodd" d="M10.2 5.00276C6.2113 5.00276 3 8.2136 3 12.2028C3 16.1919 6.21084 19.4028 10.2 19.4028V19.4028C10.261 19.4028 10.2632 19.3007 10.2031 19.2907C6.79021 18.7214 4.19969 15.7792 4.19969 12.2023C4.19969 8.62246 6.7901 5.68014 10.2029 5.11346C10.2658 5.10301 10.2638 5 10.2 5V5" fill="#F49A2A"/>
<path d="M13.098 5.00368C11.5197 5.02623 9.99254 5.56683 8.75153 6.54228C7.68029 7.3843 6.87352 8.51005 6.41893 9.78529C6.30917 10.0932 6.54836 10.4023 6.87525 10.4023H8.41668C8.6204 10.4023 8.80156 10.2776 8.89104 10.0945C9.25951 9.34079 9.82014 8.69489 10.5189 8.22348C11.311 7.68909 12.2446 7.40326 13.2002 7.40261C13.9571 7.40363 14.7031 7.58366 15.3772 7.92798C15.9024 8.19627 16.3724 8.55837 16.7646 8.99503C16.9492 9.20051 17.2601 9.25226 17.4837 9.08998L18.6205 8.26458C18.844 8.1023 18.8948 7.78824 18.7174 7.5766C18.0857 6.82337 17.3053 6.20605 16.4231 5.76447C15.3916 5.24813 14.2515 4.98721 13.098 5.00368ZM13.2176 8.60276C12.8505 8.60782 12.486 8.66703 12.1362 8.77848C11.5608 8.96148 11.0442 9.28258 10.6285 9.70828C10.358 9.98528 10.5861 10.4023 10.9732 10.4023H13.2002C13.4936 10.4025 13.7825 10.4745 14.0417 10.612C14.1495 10.6692 14.2507 10.7369 14.3441 10.814C14.5605 10.9927 14.8755 11.0571 15.1041 10.8942L15.8229 10.3818C16.0507 10.2195 16.1031 9.89891 15.9068 9.69971C15.2084 8.99115 14.2374 8.589 13.2176 8.60276ZM6.37078 11.0021C6.21733 11.0021 6.08582 11.1133 6.06684 11.2655V11.2655C6.04429 11.4465 6.18858 11.602 6.37091 11.602H8.19534C8.3366 11.602 8.455 11.4969 8.48038 11.358V11.358C8.5135 11.1767 8.37927 11.0021 8.19497 11.0021H6.37078ZM10.0434 11.0021C9.90466 11.0021 9.77934 11.0888 9.74067 11.222V11.222C9.6838 11.4179 9.83935 11.602 10.0433 11.602H11.3376C11.4385 11.602 11.5271 11.5377 11.5695 11.4462V11.4462C11.6561 11.2593 11.5343 11.0021 11.3283 11.0021H10.0434ZM16.4998 11.0021C16.3341 11.0021 16.1998 11.1364 16.1998 11.3021V11.3021C16.1998 11.4677 16.0656 11.602 15.8999 11.602V11.602C15.7343 11.602 15.6 11.7363 15.6 11.9019V12.5022C15.6 12.6679 15.7343 12.8021 15.8999 12.8021V12.8021C16.0656 12.8021 16.1998 12.9364 16.1998 13.1021V13.1021C16.1998 13.2677 16.3341 13.402 16.4998 13.402H17.1001C17.2657 13.402 17.4 13.2677 17.4 13.1021V13.1021C17.4 12.9364 17.5343 12.8021 17.6999 12.8021V12.8021C17.8656 12.8021 17.9998 12.6679 17.9998 12.5022V11.9017C17.9998 11.7362 17.8657 11.602 17.7002 11.602V11.602C17.5346 11.602 17.4005 11.4677 17.4005 11.3022V11.3022C17.4005 11.1365 17.2662 11.0021 17.1005 11.0021H16.4998ZM19.4999 11.0021C19.3343 11.0021 19.2 11.1364 19.2 11.3021V11.3021C19.2 11.4677 19.0657 11.602 18.9001 11.602V11.602C18.7344 11.602 18.6002 11.7363 18.6002 11.9019V12.5022C18.6002 12.6679 18.7344 12.8021 18.9001 12.8021V12.8021C19.0657 12.8021 19.2 12.9364 19.2 13.1021V13.1021C19.2 13.2677 19.3343 13.402 19.4999 13.402H20.1002C20.2659 13.402 20.4002 13.2677 20.4002 13.1021V13.1021C20.4002 12.9364 20.5344 12.8021 20.7001 12.8021V12.8021C20.8657 12.8021 21 12.6679 21 12.5022V11.9019C21 11.7363 20.8657 11.602 20.7001 11.602V11.602C20.5344 11.602 20.4002 11.4677 20.4002 11.3021V11.3021C20.4002 11.1364 20.2659 11.0021 20.1002 11.0021H19.4999ZM6.37211 12.8021C6.18857 12.8021 6.04403 12.9598 6.06873 13.1416V13.1416C6.08922 13.2925 6.21999 13.402 6.37221 13.402H8.19344C8.37713 13.402 8.51156 13.2285 8.47994 13.0476V13.0476C8.45554 12.9079 8.33683 12.8021 8.195 12.8021H6.37211ZM10.0459 12.8021C9.84196 12.8021 9.68643 12.9865 9.74318 13.1825V13.1825C9.78171 13.3155 9.90682 13.402 10.0453 13.402H11.3272C11.5334 13.402 11.6552 13.1449 11.5683 12.9579V12.9579C11.5258 12.8665 11.4372 12.8021 11.3364 12.8021H10.0459ZM15.1049 13.5113C14.8765 13.3486 14.5619 13.4127 14.3456 13.5911C14.2519 13.6683 14.1503 13.7362 14.0422 13.7934C13.7828 13.9306 13.4937 14.0024 13.2002 14.0023H10.9717C10.5845 14.0023 10.3564 14.4194 10.6271 14.6964C11.0432 15.1223 11.5602 15.4433 12.1362 15.6261C13.4827 16.0552 14.9438 15.6833 15.9069 14.7051C16.1032 14.5058 16.0507 14.1852 15.8229 14.0229L15.1049 13.5113ZM6.8835 14.0022C6.55676 14.0022 6.31764 14.3111 6.42716 14.6189C6.75887 15.5513 7.28008 16.4075 7.96043 17.1325C8.7883 18.0146 9.82511 18.6739 10.9751 19.0495C12.4214 19.5195 13.9794 19.5195 15.4257 19.0496C16.713 18.6313 17.8531 17.8597 18.7184 16.8275C18.8958 16.6159 18.845 16.3019 18.6215 16.1396L17.4851 15.3143C17.2616 15.1519 16.9506 15.2037 16.766 15.4092C16.3737 15.846 15.9036 16.2083 15.3782 16.4766C14.7039 16.821 13.9578 17.0011 13.2006 17.002C12.2449 17.0015 11.311 16.7157 10.5187 16.1812C9.8198 15.7097 9.25908 15.0636 8.89059 14.3097C8.80111 14.1266 8.61989 14.0019 8.41611 14.0019L6.8835 14.0022Z" fill="#473286"/>
<defs>
<radialGradient id="paint0_radial_4_664" cx="0" cy="0" r="1" gradientUnits="userSpaceOnUse" gradientTransform="translate(12 1) rotate(90) scale(22)">
<stop stop-color="#F2F2F2"/>
<stop offset="1" stop-color="#CCCCCC"/>
</radialGradient>
</defs>
</svg>

<svg xmlns="http://www.w3.org/2000/svg" width="24" height="24" fill="none"><path fill="url(#a)" fill-rule="evenodd" d="M9.596 1.114c.12 0 .234-.014.344-.046a31.627 31.627 0 0 1 4.307.011c1.301.102 2.561.384 3.78.848 2.025.833 3.412 2.28 4.158 4.339.427 1.24.679 2.514.756 3.824a27.94 27.94 0 0 1-.114 4.923 11.876 11.876 0 0 1-.894 3.32c-.85 1.843-2.229 3.114-4.135 3.813a15.624 15.624 0 0 1-4.765.825 21.423 21.423 0 0 1-5.453-.413c-3.312-.737-5.354-2.756-6.128-6.056a19.047 19.047 0 0 1-.447-4.511 18.491 18.491 0 0 1 .515-4.786c.812-3.086 2.77-4.998 5.877-5.736a13.954 13.954 0 0 1 2.199-.355Z" clip-rule="evenodd"/><path fill="#F49A2A" fill-rule="evenodd" d="M10.2 5.003c-3.989 0-7.2 3.21-7.2 7.2 0 3.989 3.21 7.2 7.2 7.2.061 0 .063-.102.003-.112A7.176 7.176 0 0 1 4.2 12.202c0-3.58 2.59-6.522 6.003-7.089.063-.01.06-.113-.003-.113" clip-rule="evenodd"/><path fill="#473286" d="M13.098 5.004a7.2 7.2 0 0 0-6.68 4.781c-.109.308.13.617.457.617h1.542a.534.534 0 0 0 .474-.307 4.8 4.8 0 0 1 4.31-2.692 4.8 4.8 0 0 1 3.564 1.592c.184.206.495.257.719.095l1.136-.825a.474.474 0 0 0 .097-.688 7.201 7.201 0 0 0-5.619-2.573Zm.12 3.599a3.732 3.732 0 0 0-1.082.175 3.656 3.656 0 0 0-1.507.93c-.271.277-.043.694.344.694H13.2a1.798 1.798 0 0 1 1.144.412c.216.179.532.243.76.08l.719-.512c.228-.162.28-.483.084-.682a3.706 3.706 0 0 0-2.69-1.097Zm-6.847 2.4a.304.304 0 0 0-.304.262.302.302 0 0 0 .304.337h1.824c.142 0 .26-.105.285-.244a.298.298 0 0 0-.285-.356H6.371Zm3.672 0a.311.311 0 0 0-.302.219c-.057.196.098.38.302.38h1.295c.1 0 .19-.064.232-.156.086-.187-.036-.444-.242-.444h-1.285Zm6.457 0a.3.3 0 0 0-.3.3.3.3 0 0 1-.3.299.3.3 0 0 0-.3.3v.6a.3.3 0 0 0 .3.3.3.3 0 0 1 .3.3.3.3 0 0 0 .3.3h.6a.3.3 0 0 0 .3-.3.3.3 0 0 1 .3-.3.3.3 0 0 0 .3-.3v-.6a.3.3 0 0 0-.3-.3.3.3 0 0 1-.3-.3.3.3 0 0 0-.3-.3h-.6Zm3 0a.3.3 0 0 0-.3.3.3.3 0 0 1-.3.299.3.3 0 0 0-.3.3v.6a.3.3 0 0 0 .3.3.3.3 0 0 1 .3.3.3.3 0 0 0 .3.3h.6a.3.3 0 0 0 .3-.3.3.3 0 0 1 .3-.3.3.3 0 0 0 .3-.3v-.6a.3.3 0 0 0-.3-.3.3.3 0 0 1-.3-.3.3.3 0 0 0-.3-.3h-.6Zm-13.128 1.8a.302.302 0 0 0-.303.339c.02.15.151.26.303.26h1.821a.299.299 0 0 0 .287-.354.293.293 0 0 0-.285-.246H6.372Zm3.674 0c-.204 0-.36.183-.303.38a.31.31 0 0 0 .302.219h1.282c.206 0 .328-.257.241-.444a.26.26 0 0 0-.232-.156h-1.29Zm5.059.708c-.229-.162-.543-.098-.76.08a1.804 1.804 0 0 1-1.145.411h-2.228c-.387 0-.616.417-.345.694.416.426.933.747 1.51.93a3.718 3.718 0 0 0 3.77-.92c.196-.2.144-.52-.084-.683l-.718-.512Zm-8.222.491c-.326 0-.565.31-.456.617a7.2 7.2 0 0 0 4.548 4.43 7.201 7.201 0 0 0 7.743-2.221.474.474 0 0 0-.096-.688l-1.137-.826c-.223-.162-.534-.11-.719.095a4.8 4.8 0 0 1-3.565 1.593 4.8 4.8 0 0 1-4.31-2.692.535.535 0 0 0-.475-.308H6.883Z"/><defs><radialGradient id="a" cx="0" cy="0" r="1" gradientTransform="matrix(0 22 -22 0 12 1)" gradientUnits="userSpaceOnUse"><stop stop-color="#F2F2F2"/><stop offset="1" stop-color="#CCC"/></radialGradient></defs></svg>
